X:36
T:WISP OF THISTLE/Jessie Smith # 2
M:4/4
L:1/16
S:John Chamber's ABC Dance Sets
R:Strathspey
K:D
d2\
| "D"AF3 F3E D3A GFED | AF3 F3A "G"~B4 Bd3 | "D"AF3 F3E "Bm"D3A GFED | "Em"GB3 "D/F#m" A3F "A7"   E6 d2|
 "D"AF3 F3E D3A GFED | AF3 F3A "G"~B4 Bd3 | "D"AF3 F3E "Bm"D3A GFED | "Em"GB3 "D/"  A3F "A7"E6 |
A2 \
| "D"d4 f3d "G"B3e "A7"dcBA | "D"d3e f3d "G"B4- "(A7)"B3A | "D"d3e f3d "G"B3e "A7"dcBA | "Bm"d3B "F#m" AF3 "Em"E6 "A" c2 |!
"D"d4 f3d "G"B3e "A7"dcBA | "Bm"d3e f3d "G"B4- B3g | "D" (3f2e2d2 "A/"(3c2d2e2 "Bm"(3d2c2B2 "F#m"(3A2B2c2 | "G"d3B "Em"AF3 "A7" E6 :|
